X:1
T:Mazurka Tex-Mex
Z:Ambroise Diascorn
S:Joel 
M:3/4
L:1/8
K:G
D ED|G,B, DG Bd|dc AD ED|A,B, CD EF|G2-GD ED|
G,B, DG Bd|dc AD ED|A,B, CD EF| G2-G :|
|: D GB|ed Be Bd|dc/A/ FD FA|cA Fc Ac|dB GD GB|
ed Be Bd|dc/A/ FD FA|fe dc BA|G2-G :|
